X: 37
T:Fire on the Mountain
M:4/4
L:1/8
Q:120
C:American
R:Breakdown
K:A
cd|:"A"efed cBAc|efae fecd|efed cBAc|BAFG ABcd|!
efed cBAc|efae fecd|efed cBAc|[1"E"BAFG "A"A2 cd:|[2"E"BAFG "A"A2 AA||!
"D"ABAG FDFD|EDEF DEFG|ABAG FDFD|"A"EDEF "D"D2FG|!
ABAG FDFD|EDEF DEFG|ABAG FDFD|"A"EDEF "D"D2 cd|]
